X:356
T:Country Serenade
C:Roddy Dorman
S:Patti Kusturok
M:2/4
L:1/8
Z:<http://tunes.nhcountrydance.com>.
K:G
Bc^c \
[| "G" d2 Tg>f | "G" gd Bd   | "D7" f2 Tf>e | "D7" fd AB |\
"D7" c2 Tf>e   | "D7" fd ^cd | "G" e>d B/2G/2E  |  "G" D2 Bc ||
"G"  d2 Tg>f   | "G" gd Bd   | "C" [ee]>d ef    | "C" g2 fe |\
"D7" d2 B>c    |"D7" dc AF| "G" (G<[GB]) [GB]>[GB] |"G" [GB] |]
K:C
[|F EF \
| "C" Gz cz | "C" ez z g | "C" a>g ec   | "C" G>A GF |\
  "C" E2 G2 | "C" c2 ga      | "G7" B>A Bc  | "G7" B>F DE ||
"G7" F2 G2  | "G7" B3 g    | "G7" a>g fd  | "G7" B>c BA |\
"G7" G2 B2  | "G7"ag zB | "C" (c2 c/2) (B/2c/2d/2) | "C" c2 Bc|]

